SVG_Azure_All/Application Configuration.svg

<?xml version="1.0" encoding="UTF-8" standalone="no"?>
<!-- Generated by Microsoft Visio, SVG Export Application Configuration.svg Page-1 -->

<svg
   xmlns:dc="http://purl.org/dc/elements/1.1/"
   xmlns:cc="http://creativecommons.org/ns#"
   xmlns:rdf="http://www.w3.org/1999/02/22-rdf-syntax-ns#"
   xmlns:svg="http://www.w3.org/2000/svg"
   xmlns="http://www.w3.org/2000/svg"
   xmlns:sodipodi="http://sodipodi.sourceforge.net/DTD/sodipodi-0.dtd"
   xmlns:inkscape="http://www.inkscape.org/namespaces/inkscape"
   width="0.78745359in"
   height="0.78747874in"
   viewBox="0 0 56.696726 56.698757"
   xml:space="preserve"
   class="st5"
   version="1.1"
   id="svg34"
   sodipodi:docname="Application Configuration.svg"
   style="font-size:12px;overflow:visible;color-interpolation-filters:sRGB;fill:none;fill-rule:evenodd;stroke-linecap:square;stroke-miterlimit:3"
   inkscape:version="0.92.5 (2060ec1f9f, 2020-04-08)"><metadata
   id="metadata40"><rdf:RDF><cc:Work
       rdf:about=""><dc:format>image/svg+xml</dc:format><dc:type
         rdf:resource="http://purl.org/dc/dcmitype/StillImage" /></cc:Work></rdf:RDF></metadata><defs
   id="defs38" /><sodipodi:namedview
   pagecolor="#ffffff"
   bordercolor="#666666"
   borderopacity="1"
   objecttolerance="10"
   gridtolerance="10"
   guidetolerance="10"
   inkscape:pageopacity="0"
   inkscape:pageshadow="2"
   inkscape:window-width="640"
   inkscape:window-height="480"
   id="namedview36"
   showgrid="false"
   inkscape:zoom="1.7193066"
   inkscape:cx="37.795138"
   inkscape:cy="23.279613"
   inkscape:window-x="0"
   inkscape:window-y="0"
   inkscape:window-maximized="0"
   inkscape:current-layer="svg34" />
	<style
   type="text/css"
   id="style2">
	<![CDATA[
		.st1 {fill:#59b4d9;stroke:none;stroke-linecap:butt;stroke-width:12.24}
		.st2 {fill:#fcd116;stroke:none;stroke-linecap:butt;stroke-width:12.24}
		.st3 {fill:#57a300;stroke:none;stroke-linecap:butt;stroke-width:12.24}
		.st4 {fill:#ffffff;fill-opacity:0.2;stroke:none;stroke-linecap:butt;stroke-width:12.24}
		.st5 {fill:none;fill-rule:evenodd;font-size:12px;overflow:visible;stroke-linecap:square;stroke-miterlimit:3}
	]]>
	</style>

	<g
   id="g32"
   transform="translate(-12.240111,-12.235543)">
		<title
   id="title4">Page-1</title>
		<g
   id="group9848-1"
   transform="translate(12.24,-34.0157)">
			<title
   id="title6">Application Configuration</title>
			<g
   id="group9849-2">
				<title
   id="title8"> Azure_AppConfiguration</title>
				<g
   id="shape9850-3"
   transform="translate(0,-18.8826)">
					<title
   id="title10">Sheet.9850</title>
					<path
   d="m 48.66,81.02 c 0,-0.44 0.11,-1 0.11,-1.45 A 14.23,14.3959 -180 0 0 34.39,65.25 13.9547,14.1174 -180 0 0 22.78,71.07 10.2909,10.4109 -180 0 0 17.03,69.39 10.8315,10.9578 -180 0 0 6.2,80.25 v 0.89 A 10.7224,10.8474 -180 0 0 0,90.98 11.9759,12.1155 -180 0 0 12.39,102.95 H 42.91 A 11.9759,12.1155 -180 0 0 55.3,90.98 10.4893,10.6116 -180 0 0 48.66,81.02 Z"
   class="st1"
   id="path12"
   inkscape:connector-curvature="0"
   style="fill:#59b4d9;stroke:none;stroke-width:12.23999977;stroke-linecap:butt" />
				</g>
				<g
   id="shape9851-5"
   transform="translate(21.4869,-0.826599)">
					<title
   id="title15">Sheet.9851</title>
					<path
   d="m 4.84,88.77 1.17,2.8 -2.62,4.64 2.87,2.91 4.74,-2.25 2.77,1.18 1.44,4.38 0.15,0.52 h 4.08 l 1.71,-4.9 2.77,-1.18 4.08,2.13 0.51,0.26 2.87,-2.91 -2.18,-4.56 1.16,-2.8 4.34,-1.47 0.51,-0.15 v -4.13 l -4.84,-1.73 -1.16,-2.8 2.1,-4.12 0.26,-0.52 -2.77,-2.91 -4.59,2.25 -2.76,-1.18 -1.46,-4.38 -0.26,-0.52 h -3.9 l -1.71,4.9 -2.76,1.18 L 7.28,71.28 6.77,71.02 4.04,74.33 6.01,78.57 4.84,81.37 0.51,82.84 0,83.1 v 3.94 z m 7.14,-3.57 a 5.64387,5.70968 0 1 1 5.64,5.7 5.5794,5.64446 0 0 1 -5.64,-5.7 z"
   class="st2"
   id="path17"
   inkscape:connector-curvature="0"
   style="fill:#fcd116;stroke:none;stroke-width:12.23999977;stroke-linecap:butt" />
				</g>
				<g
   id="shape9852-7"
   transform="translate(5.36242)">
					<title
   id="title20">Sheet.9852</title>
					<path
   d="m 3.4,97.89 1.08,1.17 -0.46,2.77 1.94,0.9 1.93,-1.97 1.57,0.07 1.5,1.89 0.17,0.23 2.01,-0.75 -0.04,-2.73 1.15,-1.09 2.4,0.3 0.29,0.04 0.9,-1.96 -1.9,-1.85 0.08,-1.6 1.87,-1.52 0.22,-0.16 -0.74,-2.03 -2.7,0.03 -1.07,-1.16 0.3,-2.42 0.03,-0.3 -1.89,-0.93 -1.86,1.95 L 8.61,86.7 7.11,84.8 6.89,84.6 4.97,85.31 5.01,88.04 3.85,89.13 1.47,88.83 1.17,88.8 0.42,90.93 2.15,92.66 2.08,94.25 0.2,95.77 0,95.99 0.71,97.93 Z m 2.88,-3.07 a 2.96328,2.99783 0 1 1 3.8,1.78 2.92981,2.96397 0 0 1 -3.8,-1.78 z"
   class="st3"
   id="path22"
   inkscape:connector-curvature="0"
   style="fill:#57a300;stroke:none;stroke-width:12.23999977;stroke-linecap:butt" />
				</g>
				<g
   id="shape9853-9"
   transform="translate(0,-19.2187)">
					<title
   id="title25">Sheet.9853</title>
					<path
   d="m 7.75,96.8 c 0,-4.59 2.32,-8.17 6.63,-10.41 V 85.5 A 11.6039,11.7392 0 0 1 31.96,75.65 15.2888,15.4671 0 0 1 44.35,69.28 14.9788,15.1535 -180 0 0 34.39,65.47 14.349,14.5163 -180 0 0 22.78,71.4 10.2909,10.4109 -180 0 0 17.03,69.73 10.8315,10.9578 -180 0 0 6.2,80.58 v 0.9 A 10.7224,10.8474 -180 0 0 0,91.31 11.7254,11.8621 -180 0 0 9.3,102.95 12.4148,12.5595 0 0 1 7.75,96.8 Z"
   class="st4"
   id="path27"
   inkscape:connector-curvature="0"
   style="fill:#ffffff;fill-opacity:0.2;stroke:none;stroke-width:12.23999977;stroke-linecap:butt" />
				</g>
			</g>
		</g>
	</g>
</svg>

<?xml version="1.0" encoding="UTF-8" standalone="no"?>
<!DOCTYPE svg PUBLIC "-//W3C//DTD SVG 1.1//EN" "http://www.w3.org/Graphics/SVG/1.1/DTD/svg11.dtd">
<!-- Generated by Microsoft Visio, SVG Export Application Configuration.svg Page-1 -->
<svg xmlns="http://www.w3.org/2000/svg" xmlns:xlink="http://www.w3.org/1999/xlink" xmlns:ev="http://www.w3.org/2001/xml-events"
		width="1.1274in" height="1.42984in" viewBox="0 0 81.1729 102.949" xml:space="preserve" color-interpolation-filters="sRGB"
		class="st5">
	<style type="text/css">
	<![CDATA[
		.st1 {fill:#59b4d9;stroke:none;stroke-linecap:butt;stroke-width:12.24}
		.st2 {fill:#fcd116;stroke:none;stroke-linecap:butt;stroke-width:12.24}
		.st3 {fill:#57a300;stroke:none;stroke-linecap:butt;stroke-width:12.24}
		.st4 {fill:#ffffff;fill-opacity:0.2;stroke:none;stroke-linecap:butt;stroke-width:12.24}
		.st5 {fill:none;fill-rule:evenodd;font-size:12px;overflow:visible;stroke-linecap:square;stroke-miterlimit:3}
	]]>
	</style>

	<g>
		<title>Page-1</title>
		<g id="group9643-1" transform="translate(12.24,-34.0157)">
			<title>Application Configuration</title>
			<g id="group9644-2">
				<title> Azure_AppConfiguration</title>
				<g id="shape9645-3" transform="translate(-2.79776E-13,-18.8826)">
					<title>Sheet.9645</title>
					<path d="M48.66 81.02 C48.66 80.58 48.77 80.02 48.77 79.57 A14.23 14.3959 -180 0 0 34.39 65.25 A13.9547 14.1174
								 -180 0 0 22.78 71.07 A10.2909 10.4109 -180 0 0 17.03 69.39 A10.8315 10.9578 -180 0 0 6.2 80.25 L6.2
								 81.14 A10.7224 10.8474 -180 0 0 0 90.98 A11.9759 12.1155 -180 0 0 12.39 102.95 L42.91 102.95 A11.9759
								 12.1155 -180 0 0 55.3 90.98 A10.4893 10.6116 -180 0 0 48.66 81.02 Z" class="st1"/>
				</g>
				<g id="shape9646-5" transform="translate(21.4869,-0.826599)">
					<title>Sheet.9646</title>
					<path d="M4.84 88.77 L6.01 91.57 L3.39 96.21 L6.26 99.12 L11 96.87 L13.77 98.05 L15.21 102.43 L15.36 102.95 L19.44
								 102.95 L21.15 98.05 L23.92 96.87 L28 99 L28.51 99.26 L31.38 96.35 L29.2 91.79 L30.36 88.99 L34.7
								 87.52 L35.21 87.37 L35.21 83.24 L30.37 81.51 L29.21 78.71 L31.31 74.59 L31.57 74.07 L28.8 71.16
								 L24.21 73.41 L21.45 72.23 L19.99 67.85 L19.73 67.33 L15.83 67.33 L14.12 72.23 L11.36 73.41 L7.28
								 71.28 L6.77 71.02 L4.04 74.33 L6.01 78.57 L4.84 81.37 L0.51 82.84 L0 83.1 L0 87.04 L4.84 88.77 ZM11.98
								 85.2 A5.64387 5.70968 0 1 1 17.62 90.9 A5.5794 5.64446 0 0 1 11.98 85.2 Z" class="st2"/>
				</g>
				<g id="shape9647-7" transform="translate(5.36242,-2.84217E-13)">
					<title>Sheet.9647</title>
					<path d="M3.4 97.89 L4.48 99.06 L4.02 101.83 L5.96 102.73 L7.89 100.76 L9.46 100.83 L10.96 102.72 L11.13 102.95
								 L13.14 102.2 L13.1 99.47 L14.25 98.38 L16.65 98.68 L16.94 98.72 L17.84 96.76 L15.94 94.91 L16.02
								 93.31 L17.89 91.79 L18.11 91.63 L17.37 89.6 L14.67 89.63 L13.6 88.47 L13.9 86.05 L13.93 85.75 L12.04
								 84.82 L10.18 86.77 L8.61 86.7 L7.11 84.8 L6.89 84.6 L4.97 85.31 L5.01 88.04 L3.85 89.13 L1.47 88.83
								 L1.17 88.8 L0.42 90.93 L2.15 92.66 L2.08 94.25 L0.2 95.77 L0 95.99 L0.71 97.93 L3.4 97.89 ZM6.28
								 94.82 A2.96328 2.99783 0 1 1 10.08 96.6 A2.92981 2.96397 0 0 1 6.28 94.82 Z" class="st3"/>
				</g>
				<g id="shape9648-9" transform="translate(2.79776E-13,-19.2187)">
					<title>Sheet.9648</title>
					<path d="M7.75 96.8 C7.75 92.21 10.07 88.63 14.38 86.39 L14.38 85.5 A11.6039 11.7392 0 0 1 31.96 75.65 A15.2888
								 15.4671 0 0 1 44.35 69.28 A14.9788 15.1535 -180 0 0 34.39 65.47 A14.349 14.5163 -180 0 0 22.78 71.4
								 A10.2909 10.4109 -180 0 0 17.03 69.73 A10.8315 10.9578 -180 0 0 6.2 80.58 L6.2 81.48 A10.7224 10.8474
								 -180 0 0 0 91.31 A11.7254 11.8621 -180 0 0 9.3 102.95 A12.4148 12.5595 0 0 1 7.75 96.8 Z"
							class="st4"/>
				</g>
			</g>
		</g>
	</g>
</svg>
